X:1
T:Gar\c{c}ons de la Montagne
C:Trad.
R:B2
M:3/8
K:G
d2|dcB2c2|d4e2|dcB2A2|B2G2d2|dcB2c2|d4e2|dcB2A2|G4:|*
A2|B4c2|A4d2|dcB2A2|B2G2A2|B4c2|A4d2|dcB2A2|G4:|**
